X: 11277
T: Dwyer's
R: hornpipe
M: 4/4
K: Gmajor
|:G2 GA G2 Bd|e2 de gedB|e2 de gedB|A2 AAAB G2|
G2 GA G2 Bd|edef gedB|egde|BdAB|1 G2 GA G4:|2 G2 GA G2 (3def||
|:gf g2 ag a2|bage e2 dB|e2 de gedB|A2 AAAB G2|
gfgb agab|bage e2 dB|egde BdAB|1 G2 GA G2 (3def:|2 G2 gedB AB||

